apps/64/Awesomenauts.svg

<?xml version="1.0" standalone="no"?><!-- Generator: Gravit.io --><svg xmlns="http://www.w3.org/2000/svg" xmlns:xlink="http://www.w3.org/1999/xlink" style="isolation:isolate" viewBox="0 0 256 256" width="256" height="256"><defs><filter id="ZcNt01xWCgD8ZOm44A7umAudmYOr7h1U" x="-200%" y="-200%" width="400%" height="400%" filterUnits="objectBoundingBox" color-interpolation-filters="sRGB"><feGaussianBlur xmlns="http://www.w3.org/2000/svg" in="SourceGraphic" stdDeviation="4.293609062839028"/><feOffset xmlns="http://www.w3.org/2000/svg" dx="0" dy="4" result="pf_100_offsetBlur"/><feFlood xmlns="http://www.w3.org/2000/svg" flood-color="#000000" flood-opacity="0.4"/><feComposite xmlns="http://www.w3.org/2000/svg" in2="pf_100_offsetBlur" operator="in" result="pf_100_dropShadow"/><feBlend xmlns="http://www.w3.org/2000/svg" in="SourceGraphic" in2="pf_100_dropShadow" mode="normal"/></filter></defs><g filter="url(#ZcNt01xWCgD8ZOm44A7umAudmYOr7h1U)"><linearGradient id="_lgradient_103" x1="0.5" y1="1" x2="0.5000000000000001" y2="0" gradientTransform="matrix(244.648309,0,0,228.338396,5.7,11.9)" gradientUnits="userSpaceOnUse"><stop offset="0%" stop-opacity="1" style="stop-color:rgb(3,113,100)"/><stop offset="100%" stop-opacity="1" style="stop-color:rgb(0,172,152)"/></linearGradient><path d=" M 165.708919 11.9 C 239.764626 11.9 250.348309 22.457198 250.348309 96.443859 L 250.348309 155.694653 C 250.348309 229.68091 239.764626 240.238396 165.708919 240.238396 L 90.339393 240.238396 C 16.28369 240.238396 5.7 229.68091 5.7 155.694653 L 5.7 96.443859 C 5.7 22.457198 16.28369 11.9 90.339393 11.9 L 165.708919 11.9 Z " id="shape" fill="url(#_lgradient_103)"/></g><g opacity="0.4"><linearGradient id="_lgradient_104" x1="0.5166666666666668" y1="0" x2="0.5166666666666666" y2="1.0000000000000002" gradientTransform="matrix(244.65,0,0,228.34,5.68,11.95)" gradientUnits="userSpaceOnUse"><stop offset="0%" stop-opacity="1" style="stop-color:rgb(255,255,255)"/><stop offset="12.5%" stop-opacity="0.09803922" style="stop-color:rgb(255,255,255)"/><stop offset="92.500001%" stop-opacity="0.09803922" style="stop-color:rgb(0,0,0)"/><stop offset="100%" stop-opacity="0.49803922" style="stop-color:rgb(0,0,0)"/></linearGradient><path d=" M 165.06803 11.951234 C 169.395994 11.941409 173.723944 11.990533 178.051908 12.088781 C 181.927398 12.167379 185.802873 12.31475 189.678362 12.540721 C 193.1309 12.737216 196.583423 13.022134 200.026115 13.395476 C 203.085193 13.729518 206.144271 14.181458 209.173842 14.741469 C 211.888645 15.242533 214.57394 15.881143 217.219897 16.6573 C 219.619947 17.354858 221.970814 18.219439 224.242988 19.241215 C 226.357793 20.184394 228.384061 21.304417 230.302129 22.591462 C 232.141505 23.829383 233.862851 25.244151 235.436659 26.80629 C 237.000621 28.378252 238.417046 30.087764 239.656409 31.924995 C 240.944972 33.840824 242.066305 35.864728 243.020409 37.967229 C 244.043389 40.246576 244.908985 42.584873 245.617197 44.972292 C 246.394255 47.615155 247.033606 50.297317 247.535265 53.008956 C 248.095924 56.034984 248.548399 59.080665 248.882828 62.13617 C 249.256611 65.574836 249.541856 69.013506 249.738578 72.462003 C 249.964823 76.323139 250.112361 80.194101 250.200884 84.055237 C 250.289421 88.378131 250.338591 92.701032 250.32876 97.014106 L 250.32876 155.225886 C 250.338591 159.54878 250.289421 163.861854 250.200884 168.184747 C 250.112361 172.05571 249.964823 175.916853 249.738578 179.777981 C 249.541856 183.226485 249.256611 186.674975 248.882828 190.103826 C 248.548399 193.15933 248.095924 196.214835 247.535265 199.240851 C 247.033606 201.942664 246.394255 204.624837 245.617197 207.267703 C 244.908985 209.655115 244.043389 212.003235 243.020409 214.272755 C 242.066305 216.38509 240.944972 218.399156 239.656409 220.314999 C 238.417046 222.152226 237.000621 223.871561 235.436659 225.433697 C 233.862851 226.995832 232.141505 228.410601 230.302129 229.648532 C 228.384061 230.935575 226.357793 232.055598 224.242988 232.998768 C 221.970814 234.020552 219.619947 234.885137 217.219897 235.592507 C 214.57394 236.368672 211.888645 237.007276 209.173842 237.498515 C 206.144271 238.068354 203.085193 238.510465 200.026115 238.844519 C 196.583423 239.21785 193.1309 239.502777 189.678362 239.699269 C 185.802873 239.925235 181.927398 240.072615 178.051908 240.161035 C 173.723944 240.249454 169.395994 240.298581 165.06803 240.288762 L 90.941963 240.288762 C 86.614006 240.298581 82.286049 240.249454 77.9581 240.161035 C 74.08261 240.072615 70.20712 239.925235 66.331638 239.699269 C 62.879108 239.502777 59.426578 239.21785 55.983886 238.844519 C 52.924808 238.510465 49.865733 238.068354 46.836162 237.498515 C 44.121356 237.007276 41.436057 236.368672 38.7901 235.592507 C 36.390053 234.885137 34.039187 234.020552 31.767009 232.998768 C 29.652213 232.055598 27.625943 230.935575 25.707871 229.648532 C 23.868489 228.410601 22.147143 226.995832 20.573343 225.433697 C 19.009377 223.871561 17.592955 222.152226 16.353586 220.314999 C 15.065036 218.399156 13.943701 216.38509 12.989584 214.272755 C 11.966612 212.003235 11.101021 209.655115 10.392811 207.267703 C 9.615746 204.624837 8.976389 201.942664 8.47474 199.240851 C 7.914072 196.214835 7.461604 193.15933 7.127172 190.103826 C 6.753394 186.674975 6.468142 183.226485 6.271417 179.777981 C 6.045183 175.916853 5.897639 172.05571 5.809112 168.184747 C 5.720586 163.861854 5.671405 159.54878 5.681241 155.225886 L 5.681241 97.014106 C 5.671405 92.701032 5.720586 88.378131 5.809112 84.055237 C 5.897639 80.194101 6.045183 76.323139 6.271417 72.462003 C 6.468142 69.013506 6.753394 65.574836 7.127172 62.13617 C 7.461604 59.080665 7.914072 56.034984 8.47474 53.008956 C 8.976389 50.297317 9.615746 47.615155 10.392811 44.972292 C 11.101021 42.584873 11.966612 40.246576 12.989584 37.967229 C 13.943701 35.864728 15.065036 33.840824 16.353586 31.924995 C 17.592955 30.087764 19.009377 28.378252 20.573343 26.80629 C 22.147143 25.244151 23.868489 23.829383 25.707871 22.591462 C 27.625943 21.304417 29.652213 20.184394 31.767009 19.241215 C 34.039187 18.219439 36.390053 17.354858 38.7901 16.6573 C 41.436057 15.881143 44.121356 15.242533 46.836162 14.741469 C 49.865733 14.181458 52.924808 13.729518 55.983886 13.395476 C 59.426578 13.022134 62.879108 12.737216 66.331638 12.540721 C 70.20712 12.31475 74.08261 12.167379 77.9581 12.088781 C 82.286049 11.990533 86.614006 11.941409 90.941963 11.951234 L 165.06803 11.951234 Z  M 165.077876 15.959741 C 169.376317 15.949916 173.674759 15.99904 177.973216 16.087463 C 181.799522 16.175886 185.625827 16.323257 189.452133 16.539402 C 192.835809 16.735898 196.219486 17.010992 199.583486 17.384332 C 202.554026 17.698726 205.514751 18.131016 208.445953 18.681203 C 211.023049 19.152792 213.580483 19.761928 216.098564 20.498786 C 218.321569 21.147221 220.495374 21.952852 222.600334 22.896029 C 224.508571 23.750785 226.338116 24.762737 228.069293 25.922059 C 229.692286 27.012609 231.207063 28.260355 232.59398 29.645648 C 233.980897 31.030941 235.230091 32.543956 236.331763 34.165043 C 237.492434 35.894202 238.505568 37.711787 239.361333 39.607968 C 240.305606 41.720292 241.112187 43.891565 241.761369 46.102139 C 242.508934 48.617282 243.108947 51.161898 243.590914 53.735987 C 244.131912 56.663768 244.564709 59.6112 244.889308 62.578282 C 245.263091 65.938355 245.538505 69.308252 245.735227 72.687976 C 245.951626 76.509812 246.10901 80.321821 246.187687 84.143656 C 246.276225 88.437084 246.325394 92.720685 246.325394 97.014106 C 246.325394 97.014106 246.325394 97.014106 246.325394 97.014106 L 246.325394 155.225886 C 246.325394 155.225886 246.325394 155.225886 246.325394 155.225886 C 246.325394 159.519306 246.276225 163.802907 246.187687 168.096328 C 246.10901 171.918164 245.951626 175.739999 245.735227 179.552015 C 245.538505 182.931739 245.263091 186.301629 244.889308 189.671533 C 244.564709 192.628784 244.131912 195.576216 243.590914 198.503994 C 243.108947 201.078094 242.508934 203.622706 241.761369 206.137845 C 241.112187 208.358253 240.305606 210.5197 239.361333 212.63202 C 238.505568 214.528209 237.492434 216.355617 236.331763 218.074952 C 235.230091 219.705853 233.980897 221.218876 232.59398 222.604172 C 231.207063 223.979634 229.692286 225.227385 228.069293 226.317935 C 226.338116 227.477251 224.508571 228.489201 222.600334 229.343951 C 220.495374 230.296956 218.321569 231.092775 216.098564 231.741198 C 213.580483 232.478056 211.023049 233.087202 208.445953 233.558787 C 205.514751 234.108972 202.554026 234.541264 199.583486 234.865483 C 196.219486 235.228995 192.835809 235.513922 189.452133 235.70058 C 185.625827 235.916726 181.799522 236.073926 177.973216 236.152526 C 173.674759 236.25078 169.376317 236.290072 165.077876 236.290072 C 165.077876 236.290072 165.077876 236.290072 165.06803 236.290072 L 90.941963 236.290072 C 90.932125 236.290072 90.932125 236.290072 90.932125 236.290072 C 86.633683 236.290072 82.335234 236.25078 78.036784 236.152526 C 74.210479 236.073926 70.384173 235.916726 66.557868 235.70058 C 63.174195 235.513922 59.790522 235.228995 56.426518 234.865483 C 53.455967 234.541264 50.495253 234.108972 47.564048 233.558787 C 44.986944 233.087202 42.429517 232.478056 39.911433 231.741198 C 37.688439 231.092775 35.514626 230.296956 33.409665 229.343951 C 31.501429 228.489201 29.671886 227.477251 27.940703 226.317935 C 26.31772 225.227385 24.802935 223.979634 23.416022 222.604172 C 22.029109 221.218876 20.779904 219.705853 19.678243 218.074952 C 18.517564 216.355617 17.504428 214.528209 16.648674 212.63202 C 15.704392 210.5197 14.897819 208.358253 14.248626 206.137845 C 13.50107 203.622706 12.901057 201.078094 12.419081 198.503994 C 11.878086 195.576216 11.445291 192.628784 11.120694 189.671533 C 10.746916 186.301629 10.471501 182.931739 10.274776 179.552015 C 10.058378 175.739999 9.900997 171.918164 9.822307 168.096328 C 9.733781 163.802907 9.6846 159.519306 9.6846 155.225886 C 9.6846 155.225886 9.6846 155.225886 9.6846 155.225886 L 9.6846 97.014106 C 9.6846 97.014106 9.6846 97.014106 9.6846 97.014106 C 9.6846 92.720685 9.733781 88.437084 9.822307 84.143656 C 9.900997 80.321821 10.058378 76.509812 10.274776 72.687976 C 10.471501 69.308252 10.746916 65.938355 11.120694 62.578282 C 11.445291 59.6112 11.878086 56.663768 12.419081 53.735987 C 12.901057 51.161898 13.50107 48.617282 14.248626 46.102139 C 14.897819 43.891565 15.704392 41.720292 16.648674 39.607968 C 17.504428 37.711787 18.517564 35.894202 19.678243 34.165043 C 20.779904 32.543956 22.029109 31.030941 23.416022 29.645648 C 24.802935 28.260355 26.31772 27.012609 27.940703 25.922059 C 29.671886 24.762737 31.501429 23.750785 33.409665 22.896029 C 35.514626 21.952852 37.688439 21.147221 39.911433 20.498786 C 42.429517 19.761928 44.986944 19.152792 47.564048 18.681203 C 50.495253 18.131016 53.455967 17.698726 56.426518 17.384332 C 59.790522 17.010992 63.174195 16.735898 66.557868 16.539402 C 70.384173 16.323257 74.210479 16.175886 78.036784 16.087463 C 82.335234 15.99904 86.633683 15.949916 90.932125 15.959741 C 90.932125 15.959741 90.932125 15.959741 90.941963 15.959741 L 165.06803 15.959741 C 165.077876 15.959741 165.077876 15.959741 165.077876 15.959741 Z " fill-rule="evenodd" id="highlight" fill="url(#_lgradient_104)"/></g><linearGradient id="_lgradient_105" x1="0" y1="0" x2="-1.8369701987210297e-16" y2="1" gradientTransform="matrix(138.054005,0,0,127.162207,58.383999,63.419794)" gradientUnits="userSpaceOnUse"><stop offset="0.000009999999999999999%" stop-opacity="1" style="stop-color:rgb(0,242,96)"/><stop offset="100%" stop-opacity="1" style="stop-color:rgb(5,117,230)"/></linearGradient><path d=" M 58.383999 190.582001 L 113.358002 72.889999 C 114.344002 70.778 115.983002 68.474998 117.874001 66.796997 C 119.261002 65.566002 120.946999 64.630997 122.704002 64.038002 C 124.185997 63.537998 126.137001 63.414001 127.356003 63.419998 C 128.574005 63.425999 129.953995 63.459 131.365005 63.965 C 132.774994 64.471001 134.477997 65.327003 136.171997 66.640999 C 137.865997 67.955002 139.675003 69.830002 140.735992 72.066002 L 196.438004 190.582001 L 98.303001 190.582001 L 113.768997 156.261002 L 148.970993 156.466995 L 127.766998 109.325996 L 88.322998 190.582001 L 58.383999 190.582001 Z " id="Path" fill="url(#_lgradient_105)"/><path d=" M 127.364998 61.534 C 126.010002 61.528999 123.970001 61.620998 122.100998 62.250999 C 120.122002 62.918999 118.222 63.966999 116.622002 65.387001 C 114.496002 67.274002 112.751999 69.730003 111.649002 72.091003 L 55.421001 192.468002 L 95.385002 192.468002 L 112.554001 154.367996 L 146.046005 154.563995 L 112.554001 154.367996 L 95.385002 192.468002 L 199.408005 192.468002 L 142.442001 71.261002 L 142.440002 71.254997 C 141.197998 68.638 139.195007 66.597 137.328003 65.149002 C 135.464005 63.702 133.593994 62.758999 132.001999 62.188 C 130.246994 61.557999 128.610001 61.537998 127.364998 61.532001 L 127.364998 61.534 L 127.364998 61.534 Z  M 127.347 65.306 C 128.537994 65.310997 129.660995 65.357002 130.727997 65.739998 C 131.955994 66.181 133.492996 66.948997 135.016998 68.130997 C 136.537994 69.310997 138.151993 71.019997 139.033005 72.875 L 193.466995 188.695999 L 101.222 188.695999 L 114.985001 158.154999 L 151.895004 158.369995 L 127.833 104.873001 L 87.141998 188.695999 L 61.347 188.695999 L 115.066002 73.688004 C 115.935997 71.824997 117.471001 69.677002 119.125999 68.208 C 120.299004 67.166 121.773003 66.342003 123.306999 65.824997 C 124.403 65.455002 126.264999 65.301003 127.347 65.306 L 127.347 65.306 Z " id="Compound Path" fill="rgb(0,0,0)"/></svg>

<svg xmlns="http://www.w3.org/2000/svg" style="isolation:isolate" width="256" height="256"><g filter="url(#a)"><linearGradient id="b" x1=".517" y1=".004" x2=".519" y2=".933" gradientTransform="matrix(244.648 0 0 228.338 5.676 11.947)" gradientUnits="userSpaceOnUse"><stop offset="0%" stop-color="#97313d"/><stop offset="15.674%" stop-color="#fec377"/><stop offset="35.785%" stop-color="#ebb765"/><stop offset="51.806%" stop-color="#bf5e3d"/><stop offset="71.751%" stop-color="#fcdf6a"/><stop offset="100%" stop-color="#c8643f"/></linearGradient><path d="M165.685 11.947c74.055 0 84.639 10.557 84.639 84.544v59.251c0 73.986-10.584 84.543-84.639 84.543h-75.37c-74.055 0-84.639-10.557-84.639-84.543V96.491c0-73.987 10.584-84.544 84.639-84.544h75.37z" fill="url(#b)"/></g><defs><filter id="a" x="-200%" y="-200%" width="400%" height="400%" filterUnits="objectBoundingBox" color-interpolation-filters="sRGB"><feGaussianBlur xmlns="http://www.w3.org/2000/svg" in="SourceGraphic" stdDeviation="4.294"/><feOffset xmlns="http://www.w3.org/2000/svg" dy="4" result="pf_100_offsetBlur"/><feFlood xmlns="http://www.w3.org/2000/svg" flood-color="#000" flood-opacity=".4"/><feComposite xmlns="http://www.w3.org/2000/svg" in2="pf_100_offsetBlur" operator="in" result="pf_100_dropShadow"/><feBlend xmlns="http://www.w3.org/2000/svg" in="SourceGraphic" in2="pf_100_dropShadow"/></filter></defs><path d="M5.676 126.116v29.626c0 73.986 10.584 84.543 84.639 84.543h75.37c74.055 0 84.639-10.557 84.639-84.543v-29.626H5.676z" fill="#FFF" opacity=".1"/><linearGradient id="c" x1=".494" y1=".002" x2=".499" y2=".837" gradientTransform="matrix(138.054 0 0 127.1622 58.384 63.42)" gradientUnits="userSpaceOnUse"><stop offset="0%" stop-color="#fff194"/><stop offset="25.317%" stop-color="#e3c399"/><stop offset="34.82%" stop-color="#a5f4f4"/><stop offset="50%" stop-color="#a3f4f2"/><stop offset="56.977%" stop-color="#b8ebfd"/><stop offset="64.386%" stop-color="#85f4fc"/><stop offset="77.077%" stop-color="#71e1eb"/><stop offset="93.75%" stop-color="#2f95a0"/><stop offset="100%" stop-color="#00576c"/></linearGradient><path d="M58.384 190.582L113.358 72.89c.986-2.112 2.625-4.415 4.516-6.093 1.387-1.231 3.073-2.166 4.83-2.759 1.482-.5 3.433-.624 4.652-.618 1.218.006 2.598.039 4.009.545 1.41.506 3.113 1.362 4.807 2.676 1.694 1.314 3.503 3.189 4.564 5.425l55.702 118.516H98.303l15.466-34.321 35.202.206-21.204-47.141-39.444 81.256H58.384z" fill="url(#c)"/><path d="M127.365 61.534c-1.355-.005-3.395.087-5.264.717-1.979.668-3.879 1.716-5.479 3.136-2.126 1.887-3.87 4.343-4.973 6.704L55.421 192.468h39.964l17.169-38.1 33.492.196-33.492-.196-17.169 38.1h104.023L142.442 71.261l-.002-.006c-1.242-2.617-3.245-4.658-5.112-6.106-1.864-1.447-3.734-2.39-5.326-2.961-1.755-.63-3.392-.65-4.637-.656v.002zm-.018 3.772c1.191.005 2.314.051 3.381.434 1.228.441 2.765 1.209 4.289 2.391 1.521 1.18 3.135 2.889 4.016 4.744l54.434 115.821h-92.245l13.763-30.541 36.91.215-24.062-53.497-40.691 83.823H61.347l53.719-115.008c.87-1.863 2.405-4.011 4.06-5.48 1.173-1.042 2.647-1.866 4.181-2.383 1.096-.37 2.958-.524 4.04-.519z"/><defs><filter id="d" x="-200%" y="-200%" width="400%" height="400%" filterUnits="objectBoundingBox" color-interpolation-filters="sRGB"><feGaussianBlur xmlns="http://www.w3.org/2000/svg" stdDeviation=".235"/></filter></defs><path d="M124.878 65.505a.628.628 0 0 0-.167.028s-.835.24-1.837.609c-1.001.369-2.163.842-2.946 1.435-2.261 1.713-4.261 4.298-5.271 6.583-16.424 37.137-52.519 112.966-52.658 113.256-.096.133-.536.481-.511.643.002.017-.145.621-.141.636.07.348.563-.021.908-.101l24.669.029a.688.688 0 0 0 .21-.029c-.308-.29-.671-.631-1.324-1.229l-22.693-.028c1.275-2.657 36.508-76.081 52.689-112.669.901-2.036 2.828-4.535 4.882-6.09.537-.408 1.664-.905 2.621-1.257.956-.351 1.751-.581 1.751-.581.717-.196.561-1.255-.182-1.235zm65.136 115.765l.661 4.523.779 1.613h-87.723l-1.624 1.238a.69.69 0 0 0 .175.019h91.176l-2.981-6.357c-.056-.119-.256-.614-.463-1.036z" fill="#FFF" opacity=".3" filter="url(#d)"/><defs><filter id="e" x="-200%" y="-200%" width="400%" height="400%" filterUnits="objectBoundingBox" color-interpolation-filters="sRGB"><feGaussianBlur xmlns="http://www.w3.org/2000/svg" stdDeviation=".221"/></filter></defs><path d="M127.347 65.306c-1.188-.005-3.05.107-4.564.65-1.721.618-3.373 1.591-4.742 2.885-1.851 1.748-3.424 4.102-4.387 6.297l-10.089 22.983h.007l2.471-2.674 8.681-19.777c.891-2.029 2.399-4.28 4.101-5.889 1.237-1.168 2.755-2.065 4.336-2.633 1.272-.457 3.078-.59 4.18-.585 1.136.006 2.353.043 3.571.508 1.268.485 2.816 1.311 4.355 2.581 1.538 1.269 3.177 3.089 4.117 5.198l9.235 20.909 2.349 2.362-10.516-23.809v-.001c-1.054-2.363-2.815-4.294-4.461-5.652-1.645-1.358-3.298-2.243-4.68-2.771-1.434-.548-2.811-.576-3.964-.582z" fill="#B50D0D" opacity=".5" filter="url(#e)"/><defs><filter id="f" x="-200%" y="-200%" width="400%" height="400%" filterUnits="objectBoundingBox" color-interpolation-filters="sRGB"><feGaussianBlur xmlns="http://www.w3.org/2000/svg" stdDeviation=".688"/></filter></defs><path d="M127.747 104.373l-5.22 11.836.304.135 4.872-11.057 5.037 11.542.305-.132-5.298-12.324z" fill="#B50D0D" opacity=".465" filter="url(#f)"/><defs><filter id="g" x="-200%" y="-200%" width="400%" height="400%" filterUnits="objectBoundingBox" color-interpolation-filters="sRGB"><feGaussianBlur xmlns="http://www.w3.org/2000/svg" stdDeviation="1.263"/></filter></defs><path d="M127.365 61.534c-1.355-.005-3.395.087-5.264.717-1.979.668-3.879 1.716-5.479 3.136-2.126 1.887-3.87 4.343-4.973 6.704L55.421 192.468h39.964l17.169-38.1 33.492.196-33.492-.196-17.169 38.1h104.023L142.442 71.261l-.002-.006c-1.242-2.617-3.245-4.658-5.112-6.106-1.864-1.447-3.734-2.39-5.326-2.961-1.755-.63-3.392-.65-4.637-.656v.002zm-.018 3.772c1.191.005 2.314.051 3.381.434 1.228.441 2.765 1.209 4.289 2.391 1.521 1.18 3.135 2.889 4.016 4.744l54.434 115.821h-92.245l13.763-30.541 36.91.215-24.062-53.497-40.691 83.823H61.347l53.719-115.008c.87-1.863 2.405-4.011 4.06-5.48 1.173-1.042 2.647-1.866 4.181-2.383 1.096-.37 2.958-.524 4.04-.519z" opacity=".3" filter="url(#g)"/><g opacity=".4"><linearGradient id="h" x1=".517" x2=".517" y2="1" gradientTransform="matrix(244.65 0 0 228.34 5.68 11.95)" gradientUnits="userSpaceOnUse"><stop offset="0%" stop-color="#fff"/><stop offset="12.5%" stop-opacity=".098" stop-color="#fff"/><stop offset="92.5%" stop-opacity=".098"/><stop offset="100%" stop-opacity=".498"/></linearGradient><path d="M165.068 11.951c4.328-.01 8.656.04 12.984.138 3.875.078 7.75.226 11.626.452 3.453.196 6.905.481 10.348.854 3.06.335 6.118.786 9.148 1.346a80.47 80.47 0 0 1 8.046 1.916 53.64 53.64 0 0 1 7.023 2.584 40.413 40.413 0 0 1 6.06 3.35 35.176 35.176 0 0 1 5.134 4.215 35.072 35.072 0 0 1 4.22 5.119 41.692 41.692 0 0 1 3.363 6.042 55.982 55.982 0 0 1 2.597 7.005 80.224 80.224 0 0 1 1.918 8.037 124.43 124.43 0 0 1 1.348 9.127c.374 3.439.659 6.878.856 10.326.226 3.861.373 7.732.462 11.593.088 4.323.138 8.646.128 12.96v58.21c.01 4.324-.04 8.637-.128 12.96a325.177 325.177 0 0 1-.462 11.593 200.984 200.984 0 0 1-.856 10.326 124.691 124.691 0 0 1-1.348 9.137 80.687 80.687 0 0 1-1.918 8.027 55.414 55.414 0 0 1-2.597 7.005 41.18 41.18 0 0 1-3.364 6.042 34.559 34.559 0 0 1-4.22 5.119 35.177 35.177 0 0 1-5.134 4.215 40.412 40.412 0 0 1-6.059 3.35 55.138 55.138 0 0 1-7.023 2.594 77.806 77.806 0 0 1-8.046 1.906 120 120 0 0 1-9.148 1.346c-3.443.373-6.895.658-10.348.854-3.875.226-7.75.374-11.626.462-4.328.088-8.656.138-12.984.128H90.942c-4.328.01-8.656-.04-12.984-.128a328.387 328.387 0 0 1-11.626-.462 203.003 203.003 0 0 1-10.348-.854 120 120 0 0 1-9.148-1.346 77.806 77.806 0 0 1-8.046-1.906 55.139 55.139 0 0 1-7.023-2.594 40.413 40.413 0 0 1-6.06-3.35 35.176 35.176 0 0 1-5.134-4.215 34.56 34.56 0 0 1-4.22-5.119 41.183 41.183 0 0 1-3.363-6.042 55.415 55.415 0 0 1-2.597-7.005 80.682 80.682 0 0 1-1.918-8.027 124.688 124.688 0 0 1-1.348-9.137 200.993 200.993 0 0 1-.856-10.326 325.212 325.212 0 0 1-.462-11.593 569.197 569.197 0 0 1-.128-12.96v-58.21c-.01-4.314.04-8.637.128-12.96.089-3.86.236-7.732.462-11.593.197-3.448.482-6.887.856-10.326.335-3.055.787-6.101 1.348-9.127a80.219 80.219 0 0 1 1.918-8.037 55.983 55.983 0 0 1 2.597-7.005 41.695 41.695 0 0 1 3.364-6.042 35.072 35.072 0 0 1 4.22-5.119 35.176 35.176 0 0 1 5.134-4.215 40.413 40.413 0 0 1 6.059-3.35 53.64 53.64 0 0 1 7.023-2.584 80.47 80.47 0 0 1 8.046-1.916 125.11 125.11 0 0 1 9.148-1.346c3.443-.373 6.895-.658 10.348-.854 3.875-.226 7.75-.374 11.626-.452 4.328-.098 8.656-.148 12.984-.138h74.126zm.01 4.009c4.298-.01 8.597.039 12.895.127 3.827.089 7.653.236 11.48.452 3.383.197 6.766.472 10.13.845 2.971.315 5.932.747 8.863 1.297a75.943 75.943 0 0 1 7.653 1.818 50.493 50.493 0 0 1 6.501 2.397 37.038 37.038 0 0 1 5.47 3.026 30.383 30.383 0 0 1 4.524 3.724 31.05 31.05 0 0 1 3.738 4.519 37.271 37.271 0 0 1 3.03 5.443 51.46 51.46 0 0 1 2.4 6.494 75.563 75.563 0 0 1 1.829 7.634c.54 2.928.974 5.875 1.298 8.842.374 3.36.65 6.73.846 10.11.217 3.822.374 7.634.453 11.456.088 4.293.137 8.577.137 12.87v58.212c0 4.293-.049 8.577-.137 12.87a317.503 317.503 0 0 1-.453 11.456c-.196 3.38-.472 6.75-.846 10.12a121.689 121.689 0 0 1-1.298 8.832 75.562 75.562 0 0 1-1.83 7.634 50.902 50.902 0 0 1-2.4 6.494 36.767 36.767 0 0 1-3.03 5.443 30.615 30.615 0 0 1-3.737 4.53 30.938 30.938 0 0 1-4.525 3.713 37.038 37.038 0 0 1-5.469 3.026 49.07 49.07 0 0 1-6.501 2.397 75.942 75.942 0 0 1-7.653 1.818c-2.931.55-5.892.982-8.863 1.306-3.364.364-6.747.649-10.13.836-3.827.216-7.653.373-11.48.452-4.298.098-8.597.137-12.895.137H90.932c-4.298 0-8.597-.04-12.895-.137a320.093 320.093 0 0 1-11.48-.452 193.696 193.696 0 0 1-10.13-.836 116.71 116.71 0 0 1-8.863-1.306 75.942 75.942 0 0 1-7.653-1.818 49.07 49.07 0 0 1-6.501-2.397 37.038 37.038 0 0 1-5.47-3.026 30.938 30.938 0 0 1-4.524-3.714 30.615 30.615 0 0 1-3.738-4.529 36.766 36.766 0 0 1-3.03-5.443 50.903 50.903 0 0 1-2.4-6.494 75.567 75.567 0 0 1-1.829-7.634 121.69 121.69 0 0 1-1.298-8.832c-.374-3.37-.65-6.74-.846-10.12a317.535 317.535 0 0 1-.453-11.456 623.851 623.851 0 0 1-.137-12.87V97.014c0-4.293.049-8.577.137-12.87.079-3.822.236-7.634.453-11.456.197-3.38.472-6.75.846-10.11.324-2.967.757-5.914 1.298-8.842a75.568 75.568 0 0 1 1.83-7.634 51.46 51.46 0 0 1 2.4-6.494 37.27 37.27 0 0 1 3.03-5.443 31.05 31.05 0 0 1 3.737-4.52 30.384 30.384 0 0 1 4.525-3.723 37.039 37.039 0 0 1 5.469-3.026 50.494 50.494 0 0 1 6.501-2.397 75.943 75.943 0 0 1 7.653-1.818c2.931-.55 5.892-.982 8.863-1.297 3.364-.373 6.747-.648 10.13-.845a344.71 344.71 0 0 1 11.48-.452c4.298-.088 8.597-.137 12.895-.127H165.078z" fill-rule="evenodd" fill="url(#h)"/></g></svg>
